X:1
T:Title
%%score { 1 | 2 }
L:1/8
M:4/4
K:A
V:1 treble nm="Grand Piano"
V:2 bass 
V:1
 z4 z2[Q:1/4=106] [CE]2 | [CE]2 [CA]2 [Ec]2 [DB]2 | [CA]4 [CE]2 [EA]2 | B2 E2 d2 c2 | B6 E2 | %5
 [CE]2 [CA]2 [Ec]2 [EB]2 | [FA]4 F2 F2 | E2 A2 G2 FG |[M:3/4] [A,CA]6 |[M:1/4] [CEA]2 | %10
[M:4/4] G2 B2 d2 G2 | [CEA]4 [Ec]2 [CEA]2 | B2 A2 G2 A2 | B6 E2 | F2 [EG]2 [EA]2 [Ed]2 | %15
 [Ec]4 [CEA]2 [Ec]2 | [EB]2 [EG]2 [FA]2 [^DF]2 |[M:3/4] E6 |[M:1/4] [CE]2 | %19
[M:4/4] [CE]2 [CA]2 [Ec]2 [DB]2 | [CA]4 [CE]2 [EA]2 | B2 E2 d2 c2 | B6 E2 | %23
 [CE]2 [CA]2 [Ec]2 [EB]2 | [FA]4 F2 F2 | E2 A2 G2 FG |[M:7/4] [CA]6 z2 z2 z4 |] %27
V:2
 z4 z2 [A,,A,]2 | [A,,A,]2 [A,,A,]2 [A,,A,]2 [A,,A,]2 | [A,,A,]4 [A,,A,]2 [C,A,]2 | %3
 [E,G,E]2 [E,G,]2 [E,B,E]2 [E,A,E]2 | [E,G,E]6 [E,G,D]2 | [A,,A,]2 [A,,A,]2 [A,,A,]2 [C,A,]2 | %6
 [D,A,]4 [D,A,D]2 [D,A,D]2 | [E,A,C]2 [E,CE]2 [E,B,E]2 [D,B,D]2 |[M:3/4] A,,6 |[M:1/4] A,,2 | %10
[M:4/4] [E,B,E]2 [E,G,E]2 [E,B,E]2 [E,DE]2 | A,,4 [A,,A,]2 A,,2 | %12
 [E,DE]2 [E,CE]2 [E,B,D]2 [E,A,C]2 | [E,G,E]6 [C,A,]2 | [D,A,D]2 [D,B,]2 [C,A,]2 [B,,G,]2 | %15
 [A,,A,]4 A,,2 [A,,A,]2 | [B,,G,]2 [B,,B,]2 [B,,B,]2 [B,,A,]2 |[M:3/4] [E,G,]6 |[M:1/4] [A,,A,]2 | %19
[M:4/4] [A,,A,]2 [A,,A,]2 [A,,A,]2 [A,,A,]2 | [A,,A,]4 [A,,A,]2 [C,A,]2 | %21
 [E,G,E]2 [E,G,]2 [E,B,E]2 [E,A,E]2 | [E,G,E]6 [E,G,D]2 | [A,,A,]2 [A,,A,]2 [A,,A,]2 [C,A,]2 | %24
 [D,A,]4 [D,A,D]2 [D,A,D]2 | [E,A,C]2 [E,CE]2 [E,B,E]2 [D,B,D]2 |[M:7/4] [A,,A,]6 z2 z2 z4 |] %27

